X:092 
T:Johnny Bring the Box* (polka) 
F:file ID: cre.4/092johnny_b
S:BPC < Barrett < Collins
B:CRE4.090: gan ainm (BB setting)
L:1/8
M:2/4
Q:120
R:polka
K:D
A>d fa|A>d fa|gB cB|gB cB|
A>d fa|A>d fa|gB cB/c/|ed d2:|
a>a fd|a>g fd|gB cB|gB cB|
ag/a/ fd|ag/a/ fd|gB cB/c/|ed d2:|

%%%


